svg/snake.svg

<svg xmlns="http://www.w3.org/2000/svg" viewBox="0 0 24 24"><path d="M19.5 17H18c1.1 0 2-.9 2-2s-.9-2-2-2V9c0-1 0-2-1.08-2.86.05-.21.08-.42.08-.64C17 3.57 15 2 12.5 2c-2.26 0-4.12 1.31-4.43 3H6L3.71 2.79 3 3.5l2 2-2 2 .71.71L6 6h2.07c.31 1.69 2.17 3 4.43 3 .5 0 1-.08 1.43-.2.04.07.07.14.07.2v4H8c-1.1 0-2 .9-2 2s.9 2 2 2H6.5A2.5 2.5 0 0 0 4 19.5c0 .17 0 .34.05.5H4c-1.1 0-2 .9-2 2h17.5a2.5 2.5 0 0 0 0-5M12 5c-.55 0-1-.45-1-1s.45-1 1-1 1 .45 1 1-.45 1-1 1"/></svg>

<?xml version="1.0" encoding="UTF-8"?><!DOCTYPE svg PUBLIC "-//W3C//DTD SVG 1.1//EN" "http://www.w3.org/Graphics/SVG/1.1/DTD/svg11.dtd"><svg xmlns="http://www.w3.org/2000/svg" xmlns:xlink="http://www.w3.org/1999/xlink" version="1.1" id="mdi-snake" width="24" height="24" viewBox="0 0 24 24"><path d="M19.5 17H18C19.1 17 20 16.1 20 15S19.1 13 18 13V9C18 8 18 7 16.92 6.14C16.97 5.93 17 5.72 17 5.5C17 3.57 15 2 12.5 2C10.24 2 8.38 3.31 8.07 5H6L3.71 2.79L3 3.5L5 5.5L3 7.5L3.71 8.21L6 6H8.07C8.38 7.69 10.24 9 12.5 9C13 9 13.5 8.92 13.93 8.8C13.97 8.87 14 8.94 14 9V13H8C6.9 13 6 13.9 6 15S6.9 17 8 17H6.5C5.12 17 4 18.12 4 19.5C4 19.67 4 19.84 4.05 20H4C2.9 20 2 20.9 2 22H19.5C20.88 22 22 20.88 22 19.5S20.88 17 19.5 17M12 5C11.45 5 11 4.55 11 4S11.45 3 12 3 13 3.45 13 4 12.55 5 12 5Z" /></svg>
